icons/Design/brush-4-line.svg

<svg viewBox="0 0 24 24" xmlns="http://www.w3.org/2000/svg"><path d="M9 4.99658V11.2693H7V4.99658H5V13.9966H19V4.99658H9ZM20 15.9966H4V17.9966H20V15.9966ZM3 13.9966V3.99658C3 3.4443 3.44772 2.99658 4 2.99658H20C20.5523 2.99658 21 3.4443 21 3.99658V13.9966H22V18.9966C22 19.5489 21.5523 19.9966 21 19.9966H13V22.9966H11V19.9966H3C2.44772 19.9966 2 19.5489 2 18.9966V13.9966H3Z"/></svg>

<svg xmlns="http://www.w3.org/2000/svg" viewBox="0 0 24 24">
    <g>
        <path fill="none" d="M0 0h24v24H0z"/>
        <path d="M9 5v6.273H7V5H5v9h14V5H9zm11 11H4v2h16v-2zM3 14V4a1 1 0 0 1 1-1h16a1 1 0 0 1 1 1v10h1v5a1 1 0 0 1-1 1h-8v3h-2v-3H3a1 1 0 0 1-1-1v-5h1z"/>
    </g>
</svg>
